X:004 
T:Alexander's March - New Way
F:file ID: cre.5/004alex_mnw
B:CRE5.006 (MÃÂÃÂÃÂÃÂ¡irseÃÂÃÂÃÂÃÂ¡il Alasdruim - Leagan Nua); key uncertain
M:6/8
Q:160
R:jig
K:D
G|Ecc edd|fdd cAG|Ecc edd|edc A2:|
G|EF/G/E FDD|Ddc AGE|EF/G/E FDD|Ddc A2:|

%%%

